packages/bpk-svgs/src/icons/lg/upload.svg

<svg width="24" height="24" viewBox="0 0 24 24" fill="none" xmlns="http://www.w3.org/2000/svg">
<path fill-rule="evenodd" clip-rule="evenodd" d="M17.7071 7.29192C18.0976 7.68244 18.0976 8.31561 17.7071 8.70613C17.3166 9.09665 16.6834 9.09665 16.2929 8.70613L13 5.41324V14.0019C13 14.5542 12.5523 15.0019 12 15.0019C11.4477 15.0019 11 14.5542 11 14.0019L11 5.41324L7.70711 8.70613C7.31658 9.09665 6.68342 9.09665 6.29289 8.70613C5.90237 8.3156 5.90237 7.68244 6.29289 7.29192L11.2929 2.29192C11.6834 1.90139 12.3166 1.90139 12.7071 2.29192L17.7071 7.29192ZM4 14C4.55228 14 5 14.4477 5 15V18.0001C5 19.1046 5.89539 20 7 20H17C18.1046 20 19 19.1046 19 18V15C19 14.4477 19.4477 14 20 14C20.5523 14 21 14.4477 21 15V18C21 20.2091 19.2091 22 17 22H7C4.7909 22 3 20.2093 3 18.0001V15C3 14.4477 3.44772 14 4 14Z" fill="#161616"/>
</svg>

<svg xmlns="http://www.w3.org/2000/svg" viewBox="0 0 24 24"><path d="M17.707 7.292a1 1 0 0 1-1.414 1.414L13 5.413v8.589a1 1 0 1 1-2 0V5.413L7.707 8.706a1 1 0 0 1-1.414-1.414l5-5a1 1 0 0 1 1.414 0l5 5ZM4 14a1 1 0 0 1 1 1v3a2 2 0 0 0 2 2h10a2 2 0 0 0 2-2v-3a1 1 0 1 1 2 0v3a4 4 0 0 1-4 4H7a4 4 0 0 1-4-4v-3a1 1 0 0 1 1-1Z" clip-rule="evenodd"/></svg>
